images/blog/github.svg

<svg height="44" viewBox="0 0 44 44" width="44" xmlns="http://www.w3.org/2000/svg"><g fill="none" fill-rule="evenodd"><path d="m2 0h40c1.1045695 0 2 .8954305 2 2v40c0 1.1045695-.8954305 2-2 2h-40c-1.1045695 0-2-.8954305-2-2v-40c0-1.1045695.8954305-2 2-2z" fill="#1a1a1a"/><path d="m12.0684936 24.939508c-.0913248-.0922187-.0913248-.1844375 0-.2766562.1826146-.1844375.4109618-.2536016.6849013-.2074922.2739745.0461094.433793.0922187.4794554.1383281.3196369.1383281.6735382.4495487 1.0616337.9337325.3880955.4841485.6963344.8184237.9246816 1.0028612 1.0958981.9221875 2.2145923.9913516 3.3561528.2074922.0913249-.3227656.2397453-.5994219.4451911-.8300042.2054458-.2305468.3995637-.3918942.5822134-.4841484.1826848-.0922187.5023217-.2305468.9589459-.4149843-1.5068949-.1383282-2.7283472-.4034748-3.6644268-.7954045-.9360796-.3919296-1.6781115-.8875877-2.2260605-1.4870096-.7305988-.8299687-1.1758249-1.913539-1.3356434-3.2507108-.1598535-1.3371719-.0570955-2.5590703.3082389-3.6656953.2739745-.6916406.6621051-1.3140817 1.1643567-1.8674296-.3652994-1.1527344-.2968058-2.4668515.2054809-3.9423515 1.4611974.0922188 2.7854076.5994219 3.9726306 1.5216094 2.283121-.5994219 4.6575669-.6224766 7.1233025-.0691641.319637-.2305469.8105255-.5187128 1.4725956-.8645685.6621051-.3458203 1.4954618-.5418028 2.500035-.5879122.1826497.5072031.3082389 1.106625.3767325 1.7982656.0684937.6916406.0342644 1.3371718-.1027229 1.9365937 1.0502006 1.106625 1.5981497 2.5821249 1.6438121 4.4264999 0 1.4755-.2511082 2.6973984-.7533949 3.6656952-.5022866.9682969-1.3927038 1.7752109-2.6712516 2.4207068-.867586.4150197-2.0091465.6685859-3.4246815.7608046.6393089.3227656 1.1073312.6570763 1.4041369 1.0028966.2968408.3458203.4908886.8875878.5822485 1.6253377v2.1787211l.0684586 2.1094861c.1369872.2305823.2968408.4265295.4794905.5879477.1826496.1613828.3424681.2766562.4794554.3458203.1369522.069164.1826497.1729278.1369522.311256-.0456625.1383281-.2283121.2074922-.547914.2074922-.7762962 0-1.3927038-.2766563-1.8493281-.8300042-.1369872-.2305469-.2054808-.5071677-.2054808-.8299687v-3.319875c0-.3688749-.0913249-.6340216-.2739746-.7954044-.1826497-.1614182-.3652993-.2651466-.547949-.3112559v4.3573358c0 .7838594.0913248 1.2910625.2739745 1.5216093.1826497.2305469.2968057.4611292.3425032.6916406.0456624.0461094.0113981.0806737-.102758.1037284-.1141209.0230193-.3082038-.0115096-.5822134-.1037284-.5936114-.1383281-1.0045732-.4495841-1.2328853-.9337325s-.3424682-1.0028966-.3424682-1.5562091v-4.2880655h-.8904172v4.2881718c0 .5533125-.1141911 1.0836057-.3425032 1.5907734-.3196019.6455666-.9132484.9913515-1.7807993 1.0374609-.1369873-.0461094-.2054809-.0922187-.2054809-.1382927.0456624-.0461448.1826497-.2766563.4109618-.6916406.0456624-.0922188.1027579-.2766563.1712516-.5533125.0685287-.2766563.102758-.5994219.102758-.9682969v-4.3573712c-.1826497.0461094-.3539013.1498377-.5137198.311256-.1598185.1614182-.2397453.4265294-.2397453.7954044v3.3198749c0 .3227302-.0684936.5994219-.2054809.8299687-.4109617.5533125-1.0274044.8300042-1.8492929.8300042-.319637 0-.5022867-.0691641-.5479491-.2074922-.0456975-.0922188-.0342643-.1729279.0342644-.2420919.0685287-.0691641.1712516-.1498732.3082389-.2420919.1369872-.0922188.2283121-.1614183.2739745-.2074922.1826497-.1383282.3196019-.3227656.4109618-.5533125.1369872-.1844375.1712165-.6685859.1027229-1.4524453-.0684937-.7838594-.0799268-1.2910625-.0342644-1.5216093-1.187258.4149843-2.3972771.2074567-3.6301975-.6224766-.3652994-.368875-.7305987-.8991682-1.0958981-1.5907734-.2739745-.5072385-.8219236-1.1066604-1.6438121-1.798301z" fill="#fff"/></g></svg>

<?xml version="1.0" encoding="UTF-8"?>
<svg width="44px" height="44px" viewBox="0 0 44 44" version="1.1" xmlns="http://www.w3.org/2000/svg" xmlns:xlink="http://www.w3.org/1999/xlink">
    <!-- Generator: Sketch 49.3 (51167) - http://www.bohemiancoding.com/sketch -->
    <title>github</title>
    <desc>Created with Sketch.</desc>
    <defs></defs>
    <g id="✒️-blog" stroke="none" stroke-width="1" fill="none" fill-rule="evenodd">
        <g id="article" transform="translate(-712.000000, -3472.000000)">
            <g id="newsletter" transform="translate(448.000000, 3420.000000)">
                <g id="info" transform="translate(24.000000, 20.000000)">
                    <g id="github" transform="translate(240.000000, 32.000000)">
                        <path d="M2,0 L42,0 C43.1045695,-2.02906125e-16 44,0.8954305 44,2 L44,42 C44,43.1045695 43.1045695,44 42,44 L2,44 C0.8954305,44 1.3527075e-16,43.1045695 0,42 L0,2 C-1.3527075e-16,0.8954305 0.8954305,2.02906125e-16 2,0 Z" id="input-bg" fill="#1A1A1A"></path>
                        <path d="M12.0684936,24.939508 C11.9771688,24.8472893 11.9771688,24.7550705 12.0684936,24.6628518 C12.2511082,24.4784143 12.4794554,24.4092502 12.7533949,24.4553596 C13.0273694,24.501469 13.1871879,24.5475783 13.2328503,24.5936877 C13.5524872,24.7320158 13.9063885,25.0432364 14.294484,25.5274202 C14.6825795,26.0115687 14.9908184,26.3458439 15.2191656,26.5302814 C16.3150637,27.4524689 17.4337579,27.521633 18.5753184,26.7377736 C18.6666433,26.415008 18.8150637,26.1383517 19.0205095,25.9077694 C19.2259553,25.6772226 19.4200732,25.5158752 19.6027229,25.423621 C19.7854077,25.3314023 20.1050446,25.1930742 20.5616688,25.0086367 C19.0547739,24.8703085 17.8333216,24.6051619 16.897242,24.2132322 C15.9611624,23.8213026 15.2191305,23.3256445 14.6711815,22.7262226 C13.9405827,21.8962539 13.4953566,20.8126836 13.3355381,19.4755118 C13.1756846,18.1383399 13.2784426,16.9164415 13.643777,15.8098165 C13.9177515,15.1181759 14.3058821,14.4957348 14.8081337,13.9423869 C14.4428343,12.7896525 14.5113279,11.4755354 15.0136146,10.0000354 C16.474812,10.0922542 17.7990222,10.5994573 18.9862452,11.5216448 C21.2693662,10.9222229 23.6438121,10.8991682 26.1095477,11.4524807 C26.4291847,11.2219338 26.9200732,10.9337679 27.5821433,10.5879122 C28.2442484,10.2420919 29.0776051,10.0461094 30.0821783,10 C30.264828,10.5072031 30.3904172,11.106625 30.4589108,11.7982656 C30.5274045,12.4899062 30.4931752,13.1354374 30.3561879,13.7348593 C31.4063885,14.8414843 31.9543376,16.3169842 32,18.1613592 C32,19.6368592 31.7488918,20.8587576 31.2466051,21.8270544 C30.7443185,22.7953513 29.8539013,23.6022653 28.5753535,24.2477612 C27.7077675,24.6627809 26.566207,24.9163471 25.150672,25.0085658 C25.7899809,25.3313314 26.2580032,25.6656421 26.5548089,26.0114624 C26.8516497,26.3572827 27.0456975,26.8990502 27.1370574,27.6368001 L27.1370574,29.8155212 L27.205516,31.9250073 C27.3425032,32.1555896 27.5023568,32.3515368 27.6850065,32.512955 C27.8676561,32.6743378 28.0274746,32.7896112 28.1644619,32.8587753 C28.3014141,32.9279393 28.3471116,33.0317031 28.3014141,33.1700313 C28.2557516,33.3083594 28.073102,33.3775235 27.7535001,33.3775235 C26.9772039,33.3775235 26.3607963,33.1008672 25.904172,32.5475193 C25.7671848,32.3169724 25.6986912,32.0403516 25.6986912,31.7175506 L25.6986912,28.3976756 C25.6986912,28.0288007 25.6073663,27.763654 25.4247166,27.6022712 C25.2420669,27.440853 25.0594173,27.3371246 24.8767676,27.2910153 L24.8767676,31.6483511 C24.8767676,32.4322105 24.9680924,32.9394136 25.1507421,33.1699604 C25.3333918,33.4005073 25.4475478,33.6310896 25.4932453,33.861601 C25.5389077,33.9077104 25.5046434,33.9422747 25.3904873,33.9653294 C25.2763664,33.9883487 25.0822835,33.9538198 24.8082739,33.861601 C24.2146625,33.7232729 23.8037007,33.4120169 23.5753886,32.9278685 C23.3470765,32.4437201 23.2329204,31.9249719 23.2329204,31.3716594 L23.2329204,27.0835939 L22.3425032,27.0835939 L22.3425032,31.3717657 C22.3425032,31.9250782 22.2283121,32.4553714 22,32.9625391 C21.6803981,33.6081057 21.0867516,33.9538906 20.2192007,34 C20.0822134,33.9538906 20.0137198,33.9077813 20.0137198,33.8617073 C20.0593822,33.8155625 20.1963695,33.585051 20.4246816,33.1700667 C20.470344,33.0778479 20.5274395,32.8934104 20.5959332,32.6167542 C20.6644619,32.3400979 20.6986912,32.0173323 20.6986912,31.6484573 L20.6986912,27.2910861 C20.5160415,27.3371955 20.3447899,27.4409238 20.1849714,27.6023421 C20.0251529,27.7637603 19.9452261,28.0288715 19.9452261,28.3977465 L19.9452261,31.7176214 C19.9452261,32.0403516 19.8767325,32.3170433 19.7397452,32.5475901 C19.3287835,33.1009026 18.7123408,33.3775943 17.8904523,33.3775943 C17.5708153,33.3775943 17.3881656,33.3084302 17.3425032,33.1701021 C17.2968057,33.0778833 17.3082389,32.9971742 17.3767676,32.9280102 C17.4452963,32.8588461 17.5480192,32.778137 17.6850065,32.6859183 C17.8219937,32.5936995 17.9133186,32.5245 17.958981,32.4784261 C18.1416307,32.3400979 18.2785829,32.1556605 18.3699428,31.9251136 C18.50693,31.7406761 18.5411593,31.2565277 18.4726657,30.4726683 C18.404172,29.6888089 18.3927389,29.1816058 18.4384013,28.951059 C17.2511433,29.3660433 16.0411242,29.1585157 14.8082038,28.3285824 C14.4429044,27.9597074 14.0776051,27.4294142 13.7123057,26.737809 C13.4383312,26.2305705 12.8903821,25.6311486 12.0684936,24.939508 Z" id="Path" fill="#FFFFFF"></path>
                    </g>
                </g>
            </g>
        </g>
    </g>
</svg>
